X:422
T: Kommt, hrt ihr Leut (5-18), S. 37
N: P0692
O: Lothringen
S: MERKELBACH-PINCK, Angelika: Verklingende Weisen, Bd 5, Kassel 1962]
R: geistliches, religiöses Lied, Ehestandslied]
M: 3/4
L: 1/8
K: F
B2 | A4c2 | c2B2A2 | G4A2 | B4
G2 | A4B2 | c4F2 | F2E2D2 | C4
C2 | F4G4 | c3dc2B2 | A4G4 | F4z2

